svg/add-ticket.svg

<?xml version="1.0" encoding="UTF-8"?>
<svg xmlns="http://www.w3.org/2000/svg" xmlns:xlink="http://www.w3.org/1999/xlink" width="32" height="32" viewBox="0 0 32 32">
<path fill-rule="nonzero" fill="rgb(0%, 0%, 0%)" fill-opacity="1" d="M 21.121094 0.0585938 C 20.640625 0.0585938 20.183594 0.242188 19.839844 0.578125 L 16.398438 3.980469 L 17.28125 4.859375 C 17.53125 5.109375 17.53125 5.511719 17.28125 5.761719 C 17.167969 5.886719 17.007812 5.957031 16.839844 5.960938 C 16.667969 5.957031 16.5 5.886719 16.378906 5.761719 L 15.5 4.878906 L 0.5 19.78125 C 0.164062 20.117188 -0.0195312 20.566406 -0.0195312 21.058594 C -0.0195312 21.550781 0.164062 22 0.5 22.335938 L 2.5 24.320312 C 2.730469 24.546875 3.085938 24.585938 3.339844 24.378906 C 3.949219 23.890625 4.660156 23.621094 5.320312 23.621094 C 6.980469 23.621094 8.320312 24.960938 8.320312 26.621094 C 8.320312 27.335938 8.058594 28.027344 7.578125 28.558594 C 7.351562 28.8125 7.378906 29.199219 7.621094 29.441406 L 9.601562 31.417969 C 9.9375 31.753906 10.390625 31.960938 10.878906 31.960938 C 11.371094 31.960938 11.824219 31.753906 12.160156 31.417969 L 17.960938 25.621094 C 18.296875 29.191406 21.300781 32 24.960938 32 C 28.839844 32 32 28.839844 32 24.957031 C 32 21.296875 29.191406 18.296875 25.621094 17.957031 L 27.101562 16.480469 L 26.238281 15.621094 C 26.117188 15.5 26.050781 15.339844 26.050781 15.167969 C 26.050781 15 26.117188 14.835938 26.238281 14.71875 C 26.488281 14.46875 26.890625 14.46875 27.140625 14.71875 L 28 15.578125 L 31.398438 12.199219 C 31.753906 11.917969 31.96875 11.5 32 11.039062 C 32.042969 10.527344 31.859375 10.023438 31.5 9.660156 L 29.5 7.679688 C 29.277344 7.445312 28.914062 7.417969 28.660156 7.621094 C 28.085938 8.078125 27.449219 8.320312 26.761719 8.320312 C 25.101562 8.320312 23.738281 6.980469 23.738281 5.320312 C 23.738281 4.628906 23.980469 3.972656 24.441406 3.398438 C 24.636719 3.140625 24.609375 2.78125 24.378906 2.558594 L 22.398438 0.578125 C 22.058594 0.242188 21.597656 0.0546875 21.121094 0.0585938 M 18.621094 6.460938 C 18.78125 6.460938 18.953125 6.53125 19.078125 6.660156 L 19.980469 7.558594 C 20.230469 7.808594 20.230469 8.210938 19.980469 8.460938 C 19.855469 8.578125 19.691406 8.640625 19.519531 8.640625 C 19.355469 8.640625 19.195312 8.578125 19.078125 8.460938 L 18.179688 7.558594 C 18.058594 7.4375 17.992188 7.277344 17.992188 7.105469 C 17.992188 6.9375 18.058594 6.773438 18.179688 6.65625 C 18.292969 6.53125 18.453125 6.460938 18.621094 6.457031 M 21.320312 9.15625 C 21.484375 9.15625 21.65625 9.210938 21.78125 9.335938 L 22.679688 10.234375 C 22.929688 10.488281 22.929688 10.898438 22.679688 11.15625 C 22.558594 11.273438 22.390625 11.339844 22.21875 11.335938 C 22.046875 11.339844 21.882812 11.273438 21.761719 11.15625 L 20.859375 10.257812 C 20.609375 10 20.609375 9.589844 20.859375 9.335938 C 20.984375 9.21875 21.148438 9.152344 21.320312 9.15625 M 24.019531 11.855469 C 24.183594 11.851562 24.34375 11.917969 24.460938 12.035156 L 25.359375 12.9375 C 25.609375 13.1875 25.609375 13.585938 25.359375 13.835938 C 25.246094 13.960938 25.089844 14.03125 24.921875 14.035156 C 24.746094 14.03125 24.582031 13.960938 24.460938 13.835938 L 23.558594 12.9375 C 23.4375 12.816406 23.371094 12.652344 23.371094 12.484375 C 23.371094 12.316406 23.4375 12.152344 23.558594 12.035156 C 23.683594 11.910156 23.859375 11.855469 24.019531 11.855469 M 24.957031 19.195312 C 26.484375 19.191406 27.953125 19.796875 29.035156 20.878906 C 31.28125 23.132812 31.28125 26.777344 29.035156 29.03125 C 27.957031 30.109375 26.488281 30.71875 24.960938 30.714844 C 23.433594 30.71875 21.964844 30.113281 20.882812 29.03125 C 19.800781 27.953125 19.195312 26.484375 19.195312 24.957031 C 19.195312 23.425781 19.800781 21.960938 20.882812 20.878906 C 21.964844 19.796875 23.433594 19.191406 24.960938 19.195312 M 24.898438 21.097656 C 24.871094 21.101562 24.84375 21.109375 24.820312 21.117188 C 24.523438 21.183594 24.3125 21.453125 24.320312 21.757812 L 24.320312 24.316406 L 21.699219 24.316406 C 21.355469 24.339844 21.089844 24.640625 21.109375 24.984375 C 21.125 25.332031 21.414062 25.605469 21.761719 25.597656 L 24.320312 25.597656 L 24.320312 28.15625 C 24.316406 28.386719 24.4375 28.601562 24.636719 28.71875 C 24.835938 28.832031 25.082031 28.832031 25.28125 28.71875 C 25.480469 28.601562 25.601562 28.386719 25.601562 28.15625 L 25.601562 25.597656 L 28.160156 25.597656 C 28.390625 25.597656 28.605469 25.476562 28.722656 25.277344 C 28.839844 25.078125 28.835938 24.832031 28.71875 24.632812 C 28.605469 24.433594 28.390625 24.3125 28.160156 24.316406 L 25.601562 24.316406 L 25.601562 21.757812 C 25.609375 21.570312 25.535156 21.394531 25.398438 21.269531 C 25.265625 21.140625 25.082031 21.078125 24.898438 21.097656 M 24.898438 21.097656 "/>
</svg>

<svg role="img" viewBox="0 0 32 32" xmlns="http://www.w3.org/2000/svg"><path d="M21.121.059c-.48 0-.937.183-1.281.52L16.398 3.98l.883.88c.25.25.25.652 0 .902a.6.6 0 0 1-.441.199.67.67 0 0 1-.461-.2L15.5 4.88l-15 14.9c-.336.336-.52.785-.52 1.278 0 .492.184.941.52 1.277l2 1.984c.23.227.586.266.84.059.61-.488 1.32-.758 1.98-.758 1.66 0 3 1.34 3 3 0 .715-.261 1.406-.742 1.938-.226.253-.2.64.043.882l1.98 1.977c.336.336.79.543 1.278.543.492 0 .945-.207 1.281-.543l5.8-5.797c.337 3.57 3.34 6.379 7 6.379 3.88 0 7.04-3.16 7.04-7.043 0-3.66-2.809-6.66-6.379-7l1.48-1.477-.863-.859a.635.635 0 0 1 0-.902c.25-.25.653-.25.903 0l.859.86 3.398-3.38c.356-.281.57-.699.602-1.16a1.75 1.75 0 0 0-.5-1.379l-2-1.98a.62.62 0 0 0-.84-.059c-.574.457-1.21.7-1.898.7-1.66 0-3.024-1.34-3.024-3 0-.692.242-1.348.703-1.923a.633.633 0 0 0-.062-.84l-1.98-1.98a1.8 1.8 0 0 0-1.278-.52m-2.5 6.403c.16 0 .332.07.457.2l.902.898c.25.25.25.652 0 .902a.67.67 0 0 1-.46.18.62.62 0 0 1-.442-.18l-.898-.902a.635.635 0 0 1 0-.903.6.6 0 0 1 .441-.199m2.7 2.7c.163 0 .335.054.46.179l.899.898a.66.66 0 0 1 0 .922.65.65 0 0 1-.461.18.64.64 0 0 1-.457-.18l-.903-.898a.66.66 0 0 1 0-.922.65.65 0 0 1 .461-.18m2.7 2.7a.6.6 0 0 1 .44.18l.9.902c.25.25.25.648 0 .898a.6.6 0 0 1-.438.2.66.66 0 0 1-.461-.2l-.902-.899a.64.64 0 0 1-.188-.453.626.626 0 0 1 .649-.629m.937 7.34a5.75 5.75 0 0 1 4.078 1.684 5.774 5.774 0 0 1 0 8.152 5.75 5.75 0 0 1-4.074 1.684 5.753 5.753 0 0 1-5.766-5.758c0-1.531.606-2.996 1.688-4.078a5.75 5.75 0 0 1 4.078-1.684m-.063 1.903-.078.02a.64.64 0 0 0-.5.64v2.558H21.7a.637.637 0 0 0-.59.668.64.64 0 0 0 .652.614h2.558v2.558a.64.64 0 0 0 .317.563.65.65 0 0 0 .644 0 .65.65 0 0 0 .32-.563v-2.558h2.56c.23 0 .444-.121.562-.32a.64.64 0 0 0-.004-.645.63.63 0 0 0-.559-.317h-2.558v-2.558a.62.62 0 0 0-.204-.488.62.62 0 0 0-.5-.172m0 0" fill="rgb(0%, 0%, 0%)"/></svg>
